src/actions/32/align-horizontal-left.svg

<svg viewBox="0 0 32 32" xmlns="http://www.w3.org/2000/svg">
 <defs>
  <style type="text/css">.ColorScheme-Text {
        color:#2e3440;
      }</style>
 </defs>
 <path class="ColorScheme-Text" d="m4 4v24h2v-24h-2zm4 0v10h20v-10h-20zm1 1h18v8h-18v-8zm-1 13v10h10v-10h-10zm1 1h8v8h-8v-8z" fill="currentColor"/>
</svg>

<svg xmlns="http://www.w3.org/2000/svg" viewBox="0 0 32 32">
  <defs
     id="defs3051">
    <style
       type="text/css"
       id="current-color-scheme">
      .ColorScheme-Text {
        color:#2e3440;
      }
      </style>
  </defs>
  <path
     style="fill:currentColor;fill-opacity:1;stroke:none" 
     d="M 4 4 L 4 28 L 6 28 L 6 4 L 4 4 z M 8 4 L 8 14 L 28 14 L 28 4 L 8 4 z M 9 5 L 27 5 L 27 13 L 9 13 L 9 5 z M 8 18 L 8 28 L 18 28 L 18 18 L 8 18 z M 9 19 L 17 19 L 17 27 L 9 27 L 9 19 z "
     id="path158" 
     class="ColorScheme-Text"
     />
</svg>
